X: 1
T: Anna-Wendy's
M: 6/8
L: 1/8
R: jig
K: Dmaj
|:D2A GFE|D2d AFE|D2A G2B|AFE F2E|
D2A GFE|D2d AFE|DFA BAF|1 EDD D3:|2 EDD D2B||
|:A2c c2A|A2d d2A|eAe efg|fdf gaa|
AAA c2A|dfe d2A|Bgg Aaa|1 edc d2B:|2 edc dAF||
